dist/static/images/icons/svg/logo-niias-footer-dark.svg

<svg width="87" height="73" viewBox="0 0 87 73" fill="none" xmlns="http://www.w3.org/2000/svg">
<path d="M86.3547 0.382812H0.644531V52.7919H86.3547V0.382812Z" fill="white"/>
<path d="M55.665 15.8027V16.7549H63.9134C64.4593 16.7549 65.2871 16.7549 65.833 17.3033C66.3819 17.8488 66.3819 18.6654 66.3819 19.2168V27.4043C66.3819 27.9467 66.3819 28.7724 65.833 29.3148C65.2841 29.8602 64.4562 29.8602 63.9134 29.8602H59.9287C59.2403 29.8602 58.3458 29.8602 58.0031 29.1099C57.6604 28.3595 58.1396 27.6755 58.552 27.13L63.9134 20.0395H55.665L52.3748 24.4059C51.8229 25.1382 51.3438 25.771 51.3438 26.5876C51.3438 27.4073 51.7835 27.9979 52.3748 28.7724L53.1996 29.8602C54.0184 30.951 54.8463 32.0449 55.944 32.5903C57.0448 33.1358 58.3488 33.1358 60.1349 33.1358H63.7072C65.7632 33.1358 68.8594 33.1358 70.9185 31.0927C72.9775 29.0436 72.9775 26.0422 72.9775 24.9483V21.6728C72.9775 20.5789 72.9775 17.5776 70.9185 15.5315C68.8594 13.4853 65.7632 13.4854 63.7072 13.4854H58.0031C57.4572 13.4854 56.7689 13.4854 56.22 14.0278C55.665 14.5762 55.665 15.2572 55.665 15.8027Z" fill="#1D1D1F"/>
<path d="M45.7806 20.0391H54.0199L44.131 33.1383H35.8887L45.7806 20.0391Z" fill="#1D1D1F"/>
<path d="M13.6387 22.3534C13.6387 21.8079 13.6387 21.1269 14.1876 20.5815C14.7364 20.0391 15.4218 20.0391 15.9737 20.0391H29.7776C31.5607 20.0391 32.8677 20.0391 33.9654 20.5815C35.0632 21.1299 35.888 22.2208 36.7159 23.3086L37.5347 24.4055C38.1199 25.1799 38.5657 25.7706 38.5657 26.5872C38.5657 27.4068 38.0896 28.0427 37.5347 28.7719L34.2414 33.1383H25.9991L31.3575 26.0387C31.7729 25.4963 32.2521 24.8123 31.9094 24.0589C31.5637 23.3056 30.6721 23.3056 29.9807 23.3056H23.5306V39.6865H16.938V23.3056H13.6387V22.3534Z" fill="#1D1D1F"/>
<path d="M13.5059 60.0332H15.289V65.2253H21.2478V60.0332H23.0309V72.4394H21.2478V66.7862H15.289V72.4394H13.5059V60.0332Z" fill="white"/>
<path d="M26.3906 60.0332H28.1737V68.4888L28.1222 70.0287H28.2101C28.6377 69.1789 28.8894 68.7902 29.3352 68.079L34.3266 60.0332H36.325V72.4394H34.5419V63.9838L34.5965 62.4439H34.5086C34.0446 63.4173 33.7596 63.7909 33.3835 64.3936L28.389 72.4394H26.3906V60.0332Z" fill="white"/>
<path d="M39.6855 60.0332H41.4686V68.4888L41.4171 70.0287H41.505C41.9326 69.1789 42.1843 68.7902 42.6301 68.079L47.6216 60.0332H49.62V72.4394H47.8369V63.9838L47.8915 62.4439H47.8035C47.3395 63.4173 47.0545 63.7909 46.6785 64.3936L41.684 72.4394H39.6855V60.0332Z" fill="white"/>
<path d="M56.8335 60.0332H58.7046L63.9659 72.4394H62.0221L60.7545 69.3024H54.6562L53.3886 72.4394H51.5176L56.8335 60.0332ZM57.7069 61.6996L55.2293 67.85H60.1875L57.7069 61.6996Z" fill="white"/>
<path d="M74.3711 62.1065C73.5856 61.6454 72.6941 61.4164 71.8025 61.4164C70.6987 61.4164 69.5919 61.7539 68.7519 62.4078C67.7542 63.1883 67.0203 64.5172 67.0203 66.2379C67.0203 67.7446 67.5753 68.8264 68.1969 69.5345C69.0521 70.5259 70.2833 71.0593 71.9754 71.0593C72.5819 71.0593 73.4401 70.9358 74.4196 70.4747L74.5257 72.1743C73.4916 72.566 72.6516 72.6172 71.9208 72.6172C70.262 72.6172 68.3 72.2797 66.8384 70.7911C65.9104 69.8359 65.125 68.2388 65.125 66.2198C65.125 64.927 65.4464 62.7453 67.4449 61.2205C68.7306 60.2442 70.3348 59.8555 71.7965 59.8555C73.152 59.8555 73.9374 60.1206 74.5075 60.3858L74.3711 62.1065Z" fill="white"/>
</svg>

<svg width="87" height="73" viewBox="0 0 87 73" fill="none" xmlns="http://www.w3.org/2000/svg"><path d="M86.355.383H.645v52.409h85.71V.382z" fill="#fff"/><path d="M55.665 15.803v.952h8.248c.546 0 1.374 0 1.92.548.549.546.549 1.362.549 1.914v8.187c0 .543 0 1.368-.549 1.91-.549.546-1.377.546-1.92.546H59.93c-.689 0-1.583 0-1.926-.75-.343-.75.137-1.434.549-1.98l5.361-7.09h-8.248l-3.29 4.366c-.552.732-1.031 1.365-1.031 2.182 0 .82.44 1.41 1.03 2.184l.826 1.088c.818 1.091 1.646 2.185 2.744 2.73 1.1.546 2.405.546 4.19.546h3.573c2.056 0 5.152 0 7.211-2.043 2.06-2.05 2.06-5.05 2.06-6.145v-3.275c0-1.094 0-4.095-2.06-6.141-2.059-2.047-5.155-2.047-7.21-2.047h-5.705c-.546 0-1.234 0-1.783.543-.555.548-.555 1.23-.555 1.775z" fill="#1D1D1F"/><path d="M45.78 20.04h8.24l-9.89 13.097h-8.242L45.78 20.04zm-32.141 2.313c0-.545 0-1.226.549-1.772.548-.542 1.234-.542 1.786-.542h13.804c1.783 0 3.09 0 4.187.542 1.098.549 1.923 1.64 2.75 2.728l.82 1.096c.585.775 1.03 1.366 1.03 2.182 0 .82-.475 1.456-1.03 2.185l-3.294 4.366H26l5.359-7.1c.415-.542.894-1.226.551-1.98-.345-.752-1.237-.752-1.928-.752h-6.45v16.38h-6.593v-16.38h-3.3v-.953z" fill="#1D1D1F"/><path d="M13.506 60.033h1.783v5.192h5.959v-5.192h1.783V72.44h-1.783v-5.653h-5.959v5.653h-1.783V60.033zm12.884 0h1.784v8.456l-.052 1.54h.088c.428-.85.68-1.239 1.125-1.95l4.992-8.046h1.998V72.44h-1.783v-8.455l.054-1.54h-.087c-.464.973-.75 1.347-1.126 1.95l-4.994 8.045h-1.998V60.033zm13.295 0h1.784v8.456l-.052 1.54h.088c.428-.85.68-1.239 1.125-1.95l4.992-8.046h1.998V72.44h-1.783v-8.455l.054-1.54h-.087c-.465.973-.75 1.347-1.126 1.95l-4.994 8.045h-1.998V60.033zm17.149 0h1.87l5.262 12.406h-1.944l-1.267-3.137h-6.099L53.39 72.44h-1.871l5.316-12.406zm.873 1.667l-2.478 6.15h4.959l-2.481-6.15zm16.664.406a5.075 5.075 0 00-2.569-.69c-1.103 0-2.21.338-3.05.992-.998.78-1.732 2.11-1.732 3.83 0 1.507.555 2.588 1.177 3.296.855.992 2.086 1.525 3.778 1.525.607 0 1.465-.123 2.445-.584l.106 1.7c-1.034.391-1.874.442-2.605.442-1.659 0-3.621-.337-5.083-1.826-.928-.955-1.713-2.552-1.713-4.571 0-1.293.321-3.475 2.32-5 1.286-.976 2.89-1.364 4.352-1.364 1.355 0 2.14.265 2.71.53l-.136 1.72z" fill="#fff"/></svg>
